X: 8435
T: Crabs In The Skillet
R: jig
M: 6/8
K: Dmajor
D|:E3 B2 D|E2F G2A|B=cB AGF|BAG FED|
E3 B2 D|E2F G2B|A^GA dcB|1 AFD D2D:|2 AFD D2B||
|:efe edc|ded dcB|ABc dcB|AFD D2 B|
efe edc|ded dcB|ABc dcB|1 AFD D2B:|2 AFD D2B,||
|:EDE FEF|GFG AGA|B=cB AGF|BAG FED|
EDE FEF|GFG B3|A^GA dcB|1 AFD D2B,:|2 AFD D2D||

